Yaru++/apps/scalable/CMakeSetup.svg

<svg enable-background="new" height="256" viewBox="0 0 256 256" width="256" xmlns="http://www.w3.org/2000/svg" xmlns:xlink="http://www.w3.org/1999/xlink">
  <filter id="filter860" color-interpolation-filters="sRGB" height="1.024" width="1.024" x="-.012" y="-.012">
    <feGaussianBlur stdDeviation=".60224244"/>
  </filter>
  <filter id="filter879" color-interpolation-filters="sRGB" height="1.096" width="1.096" x="-.048" y="-.048">
    <feGaussianBlur stdDeviation="2.4089698"/>
  </filter>
  <g transform="translate(0 -44)">
    <text stroke-width=".974619" transform="scale(1.0007164 .99928411)" x="107.50838" y="381.20251"><tspan stroke-width=".974619" x="107.50838" y="388.90723"/></text>
    <g transform="matrix(1.8929253 0 0 1.8929253 .85372489115 -264.19858287664)">
      <path d="m67.274858 171.00447c-.599594-.005-1.149984.33051-1.419299.86547l-58.7419398 116.88588c-.5227968 1.0421.2327108 2.26986 1.3999109 2.27498l117.2996599.4221c1.17041.004 1.93482-1.22475 1.41348-2.27111l-58.55578-117.30798c-.264484-.52899-.803956-.86492-1.396032-.86934zm55.998332 117.29829-112.209958-.40272z" filter="url(#filter879)" opacity=".1"/>
      <path d="m67.274858 171.00447c-.599594-.005-1.149984.33051-1.419299.86547l-58.7419398 116.88588c-.5227968 1.0421.2327108 2.26986 1.3999109 2.27498l117.2996599.4221c1.17041.004 1.93482-1.22475 1.41348-2.27111l-58.55578-117.30798c-.264484-.52899-.803956-.86492-1.396032-.86934zm55.998332 117.29829-112.209958-.40272z" filter="url(#filter860)" opacity=".1"/>
      <path d="m67.274858 171.00447c-.599594-.005-1.149984.33051-1.419299.86547l-58.7419398 116.88588c-.5227968 1.0421.2327108 2.26986 1.3999109 2.27498l117.2996599.4221c1.17041.004 1.93482-1.22475 1.41348-2.27111l-58.55578-117.30798c-.264484-.52899-.803956-.86492-1.396032-.86934zm55.998332 117.29829-112.209958-.40272z" opacity=".1"/>
      <path d="m67.273003 172.32517c-.589075-.005-1.129809.32471-1.394399.85028l-57.7113781 114.83526c-.513625 1.02381.228628 2.23004 1.3753509 2.23507l115.2417932.41469c1.14987.004 1.90087-1.20326 1.38868-2.23127l-57.528507-115.24995c-.259844-.5197-.789851-.84974-1.37154-.85408zm55.015927 115.24043-110.241388-.39566z" fill="#e6e6e6"/>
      <path d="m66.512088 175.91272-55.697402 110.4009 60.84198-51.76611z" fill="#2f83ea"/>
      <path d="m68.204789 176.71127 56.045271 111.47357-47.796686-19.2579z" fill="#e34154"/>
      <path d="m46.722765 258.16544-36.49983 30.57445 112.553045.37783z" fill="#1cc477"/>
      <path d="m47.771729 256.92101 24.180819-20.24269 2.922836 31.26379z" fill="#c0bfbc"/>
    </g>
  </g>
</svg>

<?xml version="1.0" encoding="UTF-8" standalone="no"?>
<svg
   xmlns:dc="http://purl.org/dc/elements/1.1/"
   xmlns:cc="http://creativecommons.org/ns#"
   xmlns:rdf="http://www.w3.org/1999/02/22-rdf-syntax-ns#"
   xmlns:svg="http://www.w3.org/2000/svg"
   xmlns="http://www.w3.org/2000/svg"
   xmlns:xlink="http://www.w3.org/1999/xlink"
   xmlns:sodipodi="http://sodipodi.sourceforge.net/DTD/sodipodi-0.dtd"
   xmlns:inkscape="http://www.inkscape.org/namespaces/inkscape"
   viewBox="0 0 256 256"
   style="display:inline;enable-background:new"
   version="1.0"
   id="svg11300"
   height="256"
   width="256"
   sodipodi:docname="CMakeSetup.svg"
   inkscape:version="0.92.4 (5da689c313, 2019-01-14)">
  <sodipodi:namedview
     pagecolor="#ffffff"
     bordercolor="#666666"
     borderopacity="1"
     objecttolerance="10"
     gridtolerance="10"
     guidetolerance="10"
     inkscape:pageopacity="0"
     inkscape:pageshadow="2"
     inkscape:window-width="1920"
     inkscape:window-height="1016"
     id="namedview24"
     showgrid="false"
     inkscape:zoom="3.2773438"
     inkscape:cx="70.026223"
     inkscape:cy="115.79499"
     inkscape:window-x="0"
     inkscape:window-y="27"
     inkscape:window-maximized="1"
     inkscape:current-layer="g52"
     showguides="false"
     inkscape:guide-bbox="true">
    <inkscape:grid
       type="xygrid"
       id="grid862" />
    <sodipodi:guide
       position="37.347879,3.4742213"
       orientation="0,1"
       id="guide874"
       inkscape:locked="false" />
  </sodipodi:namedview>
  <title
     id="title4162">Adwaita Icon Template</title>
  <defs
     id="defs3">
    <linearGradient
       gradientTransform="matrix(0.54625232,0,0,0.54625232,-6.0941965,-68.413544)"
       id="linearGradient1007"
       x1="160.30499"
       x2="161.33"
       y1="240.13901"
       y2="135.57899"
       gradientUnits="userSpaceOnUse"
       xlink:href="#linearGradient1018" />
    <linearGradient
       id="linearGradient1018">
      <stop
         style="stop-color:#37a6e6"
         offset="0"
         id="stop2" />
      <stop
         style="stop-color:#1a7fd4"
         offset="1"
         id="stop4" />
    </linearGradient>
    <linearGradient
       id="linearGradient1108"
       x1="296"
       x2="296"
       y1="-212"
       y2="236"
       gradientUnits="userSpaceOnUse">
      <stop
         style="stop-color:#ffffff"
         offset="0"
         id="stop2-3" />
      <stop
         style="stop-color:#ffffff;stop-opacity:.09803922"
         offset=".125"
         id="stop4-6" />
      <stop
         style="stop-color:#000000;stop-opacity:.09803922"
         offset=".925"
         id="stop6" />
      <stop
         style="stop-color:#000000;stop-opacity:.49803922"
         offset="1"
         id="stop8" />
    </linearGradient>
    <clipPath
       id="clipPath1082-3-36753">
      <path
         inkscape:connector-curvature="0"
         d="M 361.9375,-212 C 507.2348,-212 528,-191.28677 528,-46.125 V 70.125 C 528,215.28618 507.2348,236 361.9375,236 H 214.0625 C 68.7652,236 48,215.28618 48,70.125 V -46.125 C 48,-191.28677 68.7652,-212 214.0625,-212 Z"
         style="fill:#8c59d9"
         id="path11" />
    </clipPath>
    <filter
       inkscape:collect="always"
       style="color-interpolation-filters:sRGB"
       id="filter860"
       x="-0.012000001"
       width="1.024"
       y="-0.011999999"
       height="1.024">
      <feGaussianBlur
         inkscape:collect="always"
         stdDeviation="0.60224244"
         id="feGaussianBlur862" />
    </filter>
    <filter
       inkscape:collect="always"
       style="color-interpolation-filters:sRGB"
       id="filter879"
       x="-0.048000003"
       width="1.096"
       y="-0.047999997"
       height="1.096">
      <feGaussianBlur
         inkscape:collect="always"
         stdDeviation="2.4089698"
         id="feGaussianBlur881" />
    </filter>
  </defs>
  <metadata
     id="metadata4">
    <rdf:RDF>
      <cc:Work
         rdf:about="">
        <dc:format>image/svg+xml</dc:format>
        <dc:type
           rdf:resource="http://purl.org/dc/dcmitype/StillImage" />
        <dc:creator>
          <cc:Agent>
            <dc:title>GNOME Design Team</dc:title>
          </cc:Agent>
        </dc:creator>
        <dc:source />
        <cc:license
           rdf:resource="http://creativecommons.org/licenses/by-sa/4.0/" />
        <dc:title>Adwaita Icon Template</dc:title>
        <dc:subject>
          <rdf:Bag />
        </dc:subject>
        <dc:date />
        <dc:rights>
          <cc:Agent>
            <dc:title />
          </cc:Agent>
        </dc:rights>
        <dc:publisher>
          <cc:Agent>
            <dc:title />
          </cc:Agent>
        </dc:publisher>
        <dc:identifier />
        <dc:relation />
        <dc:language />
        <dc:coverage />
        <dc:description />
        <dc:contributor>
          <cc:Agent>
            <dc:title />
          </cc:Agent>
        </dc:contributor>
      </cc:Work>
      <cc:License
         rdf:about="http://creativecommons.org/licenses/by-sa/4.0/">
        <cc:permits
           rdf:resource="http://creativecommons.org/ns#Reproduction" />
        <cc:permits
           rdf:resource="http://creativecommons.org/ns#Distribution" />
        <cc:requires
           rdf:resource="http://creativecommons.org/ns#Notice" />
        <cc:requires
           rdf:resource="http://creativecommons.org/ns#Attribution" />
        <cc:permits
           rdf:resource="http://creativecommons.org/ns#DerivativeWorks" />
        <cc:requires
           rdf:resource="http://creativecommons.org/ns#ShareAlike" />
      </cc:License>
    </rdf:RDF>
  </metadata>
  <g
     transform="translate(0,-44)"
     style="display:inline"
     id="layer1">
    <g
       style="display:inline"
       id="layer9">
      <g
         transform="matrix(0.84464992,-0.48696087,0.48765885,0.84344097,-75.62474,237.75357)"
         id="g1710"
         style="display:inline;enable-background:new" />
      <text
         id="text1204"
         y="381.20251"
         x="107.50838"
         style="font-style:normal;font-variant:normal;font-weight:normal;font-stretch:normal;font-size:25.989851px;line-height:125%;font-family:Cantarell;-inkscape-font-specification:Cantarell;letter-spacing:0px;word-spacing:0px;display:inline;fill:#000000;fill-opacity:1;stroke:none;stroke-width:0.97461945;enable-background:new"
         xml:space="preserve"
         transform="scale(1.0007164,0.99928411)"><tspan
           y="388.90723"
           x="107.50838"
           id="tspan1202"
           style="stroke-width:0.97461945" /></text>
      <g
         transform="matrix(1.8929253,0,0,1.8929253,0.8557559,-264.04529)"
         id="g54">
        <g
           transform="translate(-0.00107285,-0.08098228)"
           id="g52">
          <path
             sodipodi:nodetypes="cccccccccccc"
             inkscape:connector-curvature="0"
             id="path865"
             d="m 67.274858,171.00447 c -0.599594,-0.005 -1.149984,0.33051 -1.419299,0.86547 L 7.1136192,288.75582 c -0.5227968,1.0421 0.2327108,2.26986 1.3999109,2.27498 l 117.2996599,0.4221 c 1.17041,0.004 1.93482,-1.22475 1.41348,-2.27111 L 68.67089,171.87381 c -0.264484,-0.52899 -0.803956,-0.86492 -1.396032,-0.86934 z m 55.998332,117.29829 v 0 L 11.063232,287.90004 Z"
             style="color:#000000;font-style:normal;font-variant:normal;font-weight:normal;font-stretch:normal;font-size:medium;line-height:normal;font-family:sans-serif;font-variant-ligatures:normal;font-variant-position:normal;font-variant-caps:normal;font-variant-numeric:normal;font-variant-alternates:normal;font-feature-settings:normal;text-indent:0;text-align:start;text-decoration:none;text-decoration-line:none;text-decoration-style:solid;text-decoration-color:#000000;letter-spacing:normal;word-spacing:normal;text-transform:none;writing-mode:lr-tb;direction:ltr;text-orientation:mixed;dominant-baseline:auto;baseline-shift:baseline;text-anchor:start;white-space:normal;shape-padding:0;clip-rule:nonzero;display:inline;overflow:visible;visibility:visible;opacity:0.1;isolation:auto;mix-blend-mode:normal;color-interpolation:sRGB;color-interpolation-filters:linearRGB;solid-color:#000000;solid-opacity:1;vector-effect:none;fill:#000000;fill-opacity:1;fill-rule:nonzero;stroke:none;stroke-width:3.14441371;stroke-linecap:round;stroke-linejoin:round;stroke-miterlimit:4;stroke-dasharray:none;stroke-dashoffset:0;stroke-opacity:1;color-rendering:auto;image-rendering:auto;shape-rendering:auto;text-rendering:auto;enable-background:accumulate;filter:url(#filter879)" />
          <path
             style="color:#000000;font-style:normal;font-variant:normal;font-weight:normal;font-stretch:normal;font-size:medium;line-height:normal;font-family:sans-serif;font-variant-ligatures:normal;font-variant-position:normal;font-variant-caps:normal;font-variant-numeric:normal;font-variant-alternates:normal;font-feature-settings:normal;text-indent:0;text-align:start;text-decoration:none;text-decoration-line:none;text-decoration-style:solid;text-decoration-color:#000000;letter-spacing:normal;word-spacing:normal;text-transform:none;writing-mode:lr-tb;direction:ltr;text-orientation:mixed;dominant-baseline:auto;baseline-shift:baseline;text-anchor:start;white-space:normal;shape-padding:0;clip-rule:nonzero;display:inline;overflow:visible;visibility:visible;opacity:0.1;isolation:auto;mix-blend-mode:normal;color-interpolation:sRGB;color-interpolation-filters:linearRGB;solid-color:#000000;solid-opacity:1;vector-effect:none;fill:#000000;fill-opacity:1;fill-rule:nonzero;stroke:none;stroke-width:3.14441371;stroke-linecap:round;stroke-linejoin:round;stroke-miterlimit:4;stroke-dasharray:none;stroke-dashoffset:0;stroke-opacity:1;color-rendering:auto;image-rendering:auto;shape-rendering:auto;text-rendering:auto;enable-background:accumulate;filter:url(#filter860)"
             d="m 67.274858,171.00447 c -0.599594,-0.005 -1.149984,0.33051 -1.419299,0.86547 L 7.1136192,288.75582 c -0.5227968,1.0421 0.2327108,2.26986 1.3999109,2.27498 l 117.2996599,0.4221 c 1.17041,0.004 1.93482,-1.22475 1.41348,-2.27111 L 68.67089,171.87381 c -0.264484,-0.52899 -0.803956,-0.86492 -1.396032,-0.86934 z m 55.998332,117.29829 v 0 L 11.063232,287.90004 Z"
             id="path858"
             inkscape:connector-curvature="0"
             sodipodi:nodetypes="cccccccccccc" />
          <path
             sodipodi:nodetypes="cccccccccccc"
             inkscape:connector-curvature="0"
             id="path856"
             d="m 67.274858,171.00447 c -0.599594,-0.005 -1.149984,0.33051 -1.419299,0.86547 L 7.1136192,288.75582 c -0.5227968,1.0421 0.2327108,2.26986 1.3999109,2.27498 l 117.2996599,0.4221 c 1.17041,0.004 1.93482,-1.22475 1.41348,-2.27111 L 68.67089,171.87381 c -0.264484,-0.52899 -0.803956,-0.86492 -1.396032,-0.86934 z m 55.998332,117.29829 v 0 L 11.063232,287.90004 Z"
             style="color:#000000;font-style:normal;font-variant:normal;font-weight:normal;font-stretch:normal;font-size:medium;line-height:normal;font-family:sans-serif;font-variant-ligatures:normal;font-variant-position:normal;font-variant-caps:normal;font-variant-numeric:normal;font-variant-alternates:normal;font-feature-settings:normal;text-indent:0;text-align:start;text-decoration:none;text-decoration-line:none;text-decoration-style:solid;text-decoration-color:#000000;letter-spacing:normal;word-spacing:normal;text-transform:none;writing-mode:lr-tb;direction:ltr;text-orientation:mixed;dominant-baseline:auto;baseline-shift:baseline;text-anchor:start;white-space:normal;shape-padding:0;clip-rule:nonzero;display:inline;overflow:visible;visibility:visible;opacity:0.1;isolation:auto;mix-blend-mode:normal;color-interpolation:sRGB;color-interpolation-filters:linearRGB;solid-color:#000000;solid-opacity:1;vector-effect:none;fill:#000000;fill-opacity:1;fill-rule:nonzero;stroke:none;stroke-width:3.14441371;stroke-linecap:round;stroke-linejoin:round;stroke-miterlimit:4;stroke-dasharray:none;stroke-dashoffset:0;stroke-opacity:1;color-rendering:auto;image-rendering:auto;shape-rendering:auto;text-rendering:auto;enable-background:accumulate" />
          <path
             style="color:#000000;font-style:normal;font-variant:normal;font-weight:normal;font-stretch:normal;font-size:medium;line-height:normal;font-family:sans-serif;font-variant-ligatures:normal;font-variant-position:normal;font-variant-caps:normal;font-variant-numeric:normal;font-variant-alternates:normal;font-feature-settings:normal;text-indent:0;text-align:start;text-decoration:none;text-decoration-line:none;text-decoration-style:solid;text-decoration-color:#000000;letter-spacing:normal;word-spacing:normal;text-transform:none;writing-mode:lr-tb;direction:ltr;text-orientation:mixed;dominant-baseline:auto;baseline-shift:baseline;text-anchor:start;white-space:normal;shape-padding:0;clip-rule:nonzero;display:inline;overflow:visible;visibility:visible;opacity:1;isolation:auto;mix-blend-mode:normal;color-interpolation:sRGB;color-interpolation-filters:linearRGB;solid-color:#000000;solid-opacity:1;vector-effect:none;fill:#e6e6e6;fill-opacity:1;fill-rule:nonzero;stroke:none;stroke-width:3.08924866;stroke-linecap:round;stroke-linejoin:round;stroke-miterlimit:4;stroke-dasharray:none;stroke-dashoffset:0;stroke-opacity:1;color-rendering:auto;image-rendering:auto;shape-rendering:auto;text-rendering:auto;enable-background:accumulate"
             d="m 67.273003,172.32517 c -0.589075,-0.005 -1.129809,0.32471 -1.394399,0.85028 L 8.1672259,288.01071 c -0.513625,1.02381 0.228628,2.23004 1.3753509,2.23507 l 115.2417932,0.41469 c 1.14987,0.004 1.90087,-1.20326 1.38868,-2.23127 L 68.644543,173.17925 c -0.259844,-0.5197 -0.789851,-0.84974 -1.37154,-0.85408 z M 122.28893,287.5656 v 0 L 12.047542,287.16994 Z"
             id="path872"
             inkscape:connector-curvature="0"
             sodipodi:nodetypes="cccccccccccc" />
          <path
             style="fill:#2f83ea;fill-opacity:1;stroke:none;stroke-width:0.84039056px;stroke-linecap:butt;stroke-linejoin:miter;stroke-opacity:1"
             d="m 66.512088,175.91272 -55.697402,110.4009 60.84198,-51.76611 z"
             id="path864"
             inkscape:connector-curvature="0"
             sodipodi:nodetypes="cccc" />
          <path
             style="fill:#e34154;fill-opacity:1;stroke:none;stroke-width:0.84039056px;stroke-linecap:butt;stroke-linejoin:miter;stroke-opacity:1"
             d="M 68.204789,176.71127 124.25006,288.18484 76.453374,268.92694 Z"
             id="path866"
             inkscape:connector-curvature="0"
             sodipodi:nodetypes="cccc" />
          <path
             style="fill:#1cc477;fill-opacity:1;stroke:none;stroke-width:0.84039056px;stroke-linecap:butt;stroke-linejoin:miter;stroke-opacity:1"
             d="m 46.722765,258.16544 -36.49983,30.57445 112.553045,0.37783 -76.053215,-30.95228"
             id="path868"
             inkscape:connector-curvature="0"
             sodipodi:nodetypes="cccc" />
          <path
             style="fill:#c0bfbc;fill-opacity:1;stroke:none;stroke-width:0.84039056px;stroke-linecap:butt;stroke-linejoin:miter;stroke-opacity:1"
             d="m 47.771729,256.92101 24.180819,-20.24269 2.922836,31.26379 z"
             id="path870"
             inkscape:connector-curvature="0"
             sodipodi:nodetypes="cccc" />
        </g>
      </g>
    </g>
  </g>
  <g
     transform="matrix(0.50055159,0,0,0.54382428,-69.780423,165.55651)"
     id="g861"
     style="stroke:#ffffff;stroke-width:1.84039485;stroke-linecap:butt;stroke-linejoin:round;stroke-miterlimit:4;stroke-dasharray:none;stroke-opacity:1">
    <g
       id="g859"
       transform="matrix(2,0,0,2,24.834232,-1978.9059)"
       style="stroke:#ffffff;stroke-width:0.92019743;stroke-linecap:butt;stroke-linejoin:round;stroke-miterlimit:4;stroke-dasharray:none;stroke-opacity:1" />
  </g>
</svg>
